public/icons/01n.svg

<svg width="240" height="240" viewBox="0 0 240 240" fill="none" xmlns="http://www.w3.org/2000/svg">
<path d="M181.381 174.958C183.864 172.398 181.465 168.334 177.907 168.609C175.749 168.776 173.568 168.861 171.366 168.861C125.154 168.861 87.6917 131.428 87.6917 85.252C87.6917 71.0498 91.2356 57.6746 97.488 45.9612C99.1698 42.8104 96.398 38.9833 93.0558 40.248C61.9024 52.036 39.75 82.1641 39.75 117.47C39.75 163.05 76.6703 200 122.214 200C145.424 200 166.395 190.403 181.381 174.958Z" fill="#303030" fill-opacity="0.7"/>
<path fill-rule="evenodd" clip-rule="evenodd" d="M147.438 64.7664C147.038 64.1954 146.52 63.3505 144.955 61.1586C144.987 61.1912 137.46 51.5207 137.46 51.5207C136.533 50.3308 136.768 50.1324 137.973 51.0698C137.973 51.0698 147.575 58.538 147.575 58.538C149.728 60.0761 150.595 60.6165 151.174 61.022C151.745 60.6217 152.59 60.1037 154.782 58.538C154.749 58.5706 164.419 51.0431 164.419 51.0431C165.609 50.1169 165.808 50.3513 164.87 51.5566C164.87 51.5566 157.402 61.1586 157.402 61.1586C155.864 63.3119 155.324 64.1786 154.918 64.7572C155.318 65.3282 155.836 66.1731 157.402 68.365C157.369 68.3324 164.897 78.0029 164.897 78.0029C165.823 79.1928 165.589 79.3912 164.383 78.4537L154.782 70.9855C152.628 69.4474 151.761 68.9071 151.183 68.5016C150.612 68.9019 149.767 69.4199 147.575 70.9855C147.608 70.9529 137.937 78.4805 137.937 78.4805C136.747 79.4066 136.549 79.1723 137.486 77.967L144.955 68.365C146.493 66.2117 147.033 65.345 147.438 64.7664Z" fill="white"/>
<path fill-rule="evenodd" clip-rule="evenodd" d="M190.178 115.461C190.194 115.476 186.685 110.968 186.685 110.968C186.25 110.409 186.357 110.314 186.919 110.751L191.402 114.237C192.407 114.955 192.811 115.208 193.082 115.397C193.348 115.21 193.742 114.968 194.766 114.237C194.75 114.253 199.258 110.744 199.258 110.744C199.817 110.309 199.913 110.416 199.475 110.979L195.989 115.461C195.271 116.466 195.019 116.871 194.829 117.141C195.016 117.407 195.258 117.802 195.989 118.825C195.974 118.81 199.483 123.317 199.483 123.317C199.918 123.876 199.811 123.972 199.248 123.534L194.766 120.048C193.76 119.33 193.356 119.078 193.086 118.888C192.819 119.075 192.425 119.317 191.402 120.048C191.417 120.033 186.909 123.542 186.909 123.542C186.35 123.977 186.255 123.87 186.692 123.307L190.178 118.825C190.896 117.82 191.149 117.415 191.338 117.145C191.151 116.878 190.909 116.484 190.178 115.461Z" fill="white"/>
</svg>

<svg xmlns="http://www.w3.org/2000/svg" width="240" height="240" fill="none" xmlns:v="https://vecta.io/nano"><path d="M181.381 174.958c2.483-2.56.084-6.624-3.474-6.349l-6.541.252c-46.212 0-83.674-37.433-83.674-83.609 0-14.202 3.544-27.577 9.796-39.291 1.682-3.151-1.09-6.978-4.432-5.713C61.902 52.036 39.75 82.164 39.75 117.47c0 45.58 36.92 82.53 82.464 82.53 23.21 0 44.181-9.597 59.167-25.042z" fill="#303030" fill-opacity=".7"/><path d="M147.438 64.766l-2.483-3.608c.032.033-7.495-9.638-7.495-9.638-.927-1.19-.692-1.388.513-.451l9.602 7.468c2.153 1.538 3.02 2.079 3.599 2.484.571-.4 1.416-.918 3.608-2.484-.033.033 9.637-7.495 9.637-7.495 1.19-.926 1.389-.692.451.514l-7.468 9.602c-1.538 2.153-2.078 3.02-2.484 3.599.4.571.918 1.416 2.484 3.608-.033-.033 7.495 9.638 7.495 9.638.926 1.19.692 1.388-.514.451l-9.601-7.468c-2.154-1.538-3.021-2.078-3.599-2.484-.571.4-1.416.918-3.608 2.484.033-.033-9.638 7.495-9.638 7.495-1.19.926-1.388.692-.451-.514l7.469-9.602c1.538-2.153 2.078-3.02 2.483-3.599zm42.74 50.695c.016.015-3.493-4.493-3.493-4.493-.435-.559-.328-.654.234-.217l4.483 3.486 1.68 1.16 1.684-1.16c-.016.016 4.492-3.493 4.492-3.493.559-.435.655-.328.217.235l-3.486 4.482-1.16 1.68 1.16 1.684a4103.85 4103.85 0 0 0 3.494 4.492c.435.559.328.655-.235.217l-4.482-3.486-1.68-1.16-1.684 1.16c.015-.015-4.493 3.494-4.493 3.494-.559.435-.654.328-.217-.235l3.486-4.482 1.16-1.68-1.16-1.684z" fill-rule="evenodd" fill="#fff"/></svg>
